X: 29675
T: Nose Terror
R: reel
M: 4/4
K: Eminor
|:"Em"gfeg "D"fede|"Em"BE~EE EFGA|"C"Bdef gfea|"C"gfgf e^def|
"Em"gfeg "D"fede|"Em"BE~EE EFGA|"C"Bdef gfeg|"D"fagf "Em"e2 ef:|
|:"Em"gfec'"Am"c'2 ba|"C"gabg eeef|"Em"gfea"D"abga|"D"fagf "C"fega|
"Em"bagc'"Am"c'2 ba|"C"gabg eeef|"Em"gfea"D"abga|"D"fagf "Em"e2 ef:|

